X:1
T:Luise, 78.78.77
T:Luise, 78.78.77
T:Johann Crüger, 1653
T:Public Domain Courtesy of the Cyber Hymnal™
C:Johann Crüger, 1653
Z:Public Domain
Z:Courtesy of the Cyber Hymnal™
%%score ( 1 2 ) ( 3 4 )
L:1/8
Q:1/4=110
M:4/4
K:Bb
V:1 treble 
V:2 treble 
V:3 bass 
V:4 bass 
V:1
 F2 [B,D]2 [B,G]2 [EA]2 | [DB]2 [DB]2 [DA]4 | [B,G]2 [B,B]2 [CF]2 D2 | E2 [B,D]2 C4 | %4
 B,4 F2 [B,D]2 | [B,G]2 [EA]2 [DB]2 [DB]2 | [DA]4 [B,G]2 [B,B]2 | [CF]2 (B,A,) E2 [B,D]2 | C4 B,4 | %9
 [B,D]2 [C=E]2 [C^F]2 [DG]2 | [EG]2 ^F2 [B,G]4 | [DA]2 [DB]2 [Fc]2 [Fd]2 | [Gc]2 c2 [DB]4 |] %13
V:2
 (DC) x6 | x8 | x6 (B,A,) | (G,A,) x B,2 A,2 x | B,4 (DC) x2 | x8 | x8 | x4 (G,A,) x2 | %8
 B,2 A,2 B,4 | x8 | x2 (DC) x4 | x8 | x2 (FE) x4 |] %13
V:3
 [B,,B,]2 [B,,F,]2 E,2 [C,C]2 | B,2 G,2 G,2 ^F,2 | [E,G,]2 [D,F,]2 [A,,F,]2 [B,,F,]2 | %3
 [C,E,]2 [D,F,]2 [E,G,]2 F,2 | [B,,D,]4 [B,,B,]2 [B,,F,]2 | E,2 [C,C]2 B,2 G,2 | %6
 G,2 ^F,2 [E,G,]2 [D,=F,]2 | [A,,F,]2 [B,,F,]2 [C,E,]2 [D,F,]2 | [E,G,]2 F,2 [B,,D,]4 | %9
 [G,,G,]2 G,2 [A,,A,]2 [G,,B,]2 | [C,A,]2 [D,A,]2 [E,G,]4 | [D,^F,]2 G,2 A,2 [D,B,]2 | %12
 [E,B,]2 [F,A,]2 [B,,B,]4 |] %13
V:4
 x4 (E,D,) x2 | (G,,A,,) (B,,C,) D,4 | x8 | x6 F,2 | x8 | (E,D,) x (G,, A,,) (B,,C,) x | D,4 x4 | %7
 x8 | x2 F,2 x4 | x2 (C,B,,) x4 | x8 | x2 G,2 (=F,E,) x2 | x8 |] %13

